svg/movie_open_plus_outline.svg

<svg xmlns="http://www.w3.org/2000/svg" viewBox="0 0 24 24"><path d="M14.75 7.46 12 3.93l1.97-.39 2.74 3.53zm6.87-1.36-.78-3.92-3.93.78 2.74 3.54zM4 20v-8h16v1.09c.72.12 1.39.37 2 .72V10H2v10a2 2 0 0 0 2 2h9.81c-.35-.61-.59-1.28-.72-2zm7.81-11.95L9.07 4.5l-1.97.41 2.75 3.53zM4.16 5.5l-.98.19a1.995 1.995 0 0 0-1.57 2.35L2 10l4.9-.97zM20 18v-3h-2v3h-3v2h3v3h2v-3h3v-2z"/></svg>

<?xml version="1.0" encoding="UTF-8"?><!DOCTYPE svg PUBLIC "-//W3C//DTD SVG 1.1//EN" "http://www.w3.org/Graphics/SVG/1.1/DTD/svg11.dtd"><svg xmlns="http://www.w3.org/2000/svg" xmlns:xlink="http://www.w3.org/1999/xlink" version="1.1" id="mdi-movie-open-plus-outline" width="24" height="24" viewBox="0 0 24 24"><path d="M14.75 7.46L12 3.93L13.97 3.54L16.71 7.07L14.75 7.46M21.62 6.1L20.84 2.18L16.91 2.96L19.65 6.5L21.62 6.1M4 20V12H20V13.09C20.72 13.21 21.39 13.46 22 13.81V10H2V20C2 21.11 2.9 22 4 22H13.81C13.46 21.39 13.22 20.72 13.09 20H4M11.81 8.05L9.07 4.5L7.1 4.91L9.85 8.44L11.81 8.05M4.16 5.5L3.18 5.69C2.1 5.9 1.39 6.96 1.61 8.04L2 10L6.9 9.03L4.16 5.5M20 18V15H18V18H15V20H18V23H20V20H23V18H20Z" /></svg>
